X: 14577
T: Gan Ainm
R: mazurka
M: 3/4
K: Gmajor
f2 a>g (3gfe|d2 A>d A>d|e2 A>e A>e|f2 d>A d>e|
f2 a>g f>e|d2 A>d A>d|e2 A>c e>c|d3:|
A2 e>c A>c|d2 d>c B>A|A2 e>c A>c|d3 c d>e|
f2 a>g f>e|d2 A>d A>d|e2 A>e A>e|d2 D:|
B2 d>c B>A|G2 D>G D>G|A2 D>F A>c|(3BcB G>F G>A|
B2 d>c B>A|G2 D2 D2|(3AAA D>F (3AGF|G3-:|
D>F A>F (3DEF|G2 G>F E>F|D>F (3AGF D>F|(3GGG G>F (3FGA|
B>G d>c (3cBA|(3GAG D>G D>B|(3ABA D>F D>A|G2 G-:|

